X:1
P: Hamish the Carpenter
C: Cape Breton, DunGreen Colln
C: arr. T. Traub 3-5-2000
M: 4/4
L: 1/8
R: reel
K: Am
B|"Am"A2 GE GABd|"G"e2 dB "Em"degB|"Am"A2 GE GABd|"G"egdB "Am"A/A/A AB|"Am"A2 GE GAg^f|"Em"e2 dB dega|
"C"gedB "G"GABd|"Em"egdB "Am"A/A/A A||B,|"Am"A,aab a2 ge|"G"gaba gegd|"Am"egab a2 ge|
"G"dBgB "Am"A/A/A AB,|"Am"A,aab a2 ge |"G"gaba gegd|"Am"egab "C"ageg|"G"dBgB "Am"A/A/A A |]
